X: 26704
T: Mike Flanagan's
R: jig
M: 6/8
K: Dmajor
|:E|DFA DFA|GBc dcB|Add cde|fdf ecA|
DFA DFA|GBc dcB|Add cde|fdc d2:|
|:e|fdd dcd|eAA ABc|~d3 Bcd|eaa a2 g|
fdd dcd|eAA ABc|dcA GFG|Adc d2:|

